project/porshe/images/car-list/enginer.svg

<svg width="16" height="16" viewBox="0 0 16 16" fill="none" xmlns="http://www.w3.org/2000/svg">
<path fill-rule="evenodd" clip-rule="evenodd" d="M14.9379 6.42592V5.80729H16V5.25415H14.9379V4.63622H16V4.0573H14.9379V3.43937H16V2.82423C16 2.09971 15.4145 1.51173 14.693 1.51173H11.6703C10.9488 1.51173 10.3633 2.09971 10.3633 2.82423V3.44773H11.4337V4.06566H10.3633V4.64458H11.4337V5.26251H10.3633V5.81565H11.4337V6.43358H10.3633V7.09052C10.3633 7.74537 10.8413 8.28667 11.4663 8.3856V8.07489C11.4663 7.71193 11.7591 7.41864 12.1198 7.41864H12.2288L9.22551 11.6027C8.86823 11.384 8.4492 11.2558 7.99965 11.2558C7.64306 11.2558 7.30521 11.3373 7.00204 11.4801L3.808 5.90691H3.88154C4.24299 5.90691 4.53506 6.2009 4.53506 6.56316V6.87386C5.15943 6.77494 5.63812 6.23364 5.63812 5.57879V4.91348H4.5746V4.29555H5.63673V3.74241H4.5746V3.12448H5.63673V2.54557H4.5746V1.92764H5.63673V1.31249C5.63673 0.587974 5.05121 0 4.32971 0H1.30703C0.585527 0 0 0.587974 0 1.31249V1.936H1.07046V2.55393H0V3.13284H1.07046V3.75077H0V4.30391H1.07046V4.92184H0V5.57879C0 6.23364 0.477995 6.77494 1.10307 6.87386V6.56316C1.10307 6.24479 1.32923 5.97936 1.62893 5.91945L5.90383 12.5349C5.73455 12.8623 5.63673 13.2336 5.63673 13.6279C5.63673 14.9383 6.69401 16 7.99896 16C9.30391 16 10.3612 14.9383 10.3612 13.6279C10.3612 13.2858 10.2876 12.9612 10.1579 12.6672C10.1579 12.6672 14.1324 7.75513 14.3912 7.43606C14.6812 7.50364 14.8969 7.76349 14.8969 8.07489V8.3856C15.5213 8.28667 16 7.74537 16 7.09052V6.42522H14.9365L14.9379 6.42592ZM7.99965 14.9341C7.28162 14.9341 6.69956 14.3496 6.69956 13.6286C6.69956 12.9076 7.28162 12.3231 7.99965 12.3231C8.71769 12.3231 9.29974 12.9076 9.29974 13.6286C9.29974 14.3496 8.71838 14.9341 7.99965 14.9341Z" fill="#DC0027"/>
</svg>

<svg width="16" height="16" fill="none" xmlns="http://www.w3.org/2000/svg"><path fill-rule="evenodd" clip-rule="evenodd" d="M14.938 6.426v-.619H16v-.553h-1.062v-.618H16v-.579h-1.062V3.44H16v-.615a1.31 1.31 0 00-1.307-1.312H11.67a1.31 1.31 0 00-1.307 1.312v.624h1.07v.618h-1.07v.579h1.07v.618h-1.07v.553h1.07v.618h-1.07v.657a1.31 1.31 0 001.103 1.295v-.311c0-.363.293-.656.654-.656h.109l-3.003 4.184a2.34 2.34 0 00-2.224-.123L3.808 5.907h.074c.361 0 .653.294.653.656v.31A1.31 1.31 0 005.638 5.58v-.666H4.575v-.617h1.062v-.554H4.575v-.618h1.062v-.578H4.575v-.618h1.062v-.616A1.31 1.31 0 004.33 0H1.307A1.31 1.31 0 000 1.312v.624h1.07v.618H0v.579h1.07v.618H0v.553h1.07v.618H0v.657a1.31 1.31 0 001.103 1.295v-.31c0-.32.226-.585.526-.645l4.275 6.616A2.373 2.373 0 007.999 16a2.374 2.374 0 002.159-3.333s3.974-4.912 4.233-5.23c.29.067.506.326.506.638v.31A1.31 1.31 0 0016 7.092v-.666h-1.063zM8 14.934c-.718 0-1.3-.584-1.3-1.305s.582-1.306 1.3-1.306c.718 0 1.3.585 1.3 1.306 0 .72-.582 1.305-1.3 1.305z" fill="#DC0027"/></svg>
